src/svg/glyphs/more-or-less-visible.svg

<?xml version="1.0" encoding="UTF-8" standalone="no"?>
<!-- Generator: Adobe Illustrator 19.0.0, SVG Export Plug-In . SVG Version: 6.00 Build 0)  -->

<svg
   xmlns:dc="http://purl.org/dc/elements/1.1/"
   xmlns:cc="http://creativecommons.org/ns#"
   xmlns:rdf="http://www.w3.org/1999/02/22-rdf-syntax-ns#"
   xmlns:svg="http://www.w3.org/2000/svg"
   xmlns="http://www.w3.org/2000/svg"
   xmlns:sodipodi="http://sodipodi.sourceforge.net/DTD/sodipodi-0.dtd"
   xmlns:inkscape="http://www.inkscape.org/namespaces/inkscape"
   version="1.1"
   id="Layer_1"
   x="0px"
   y="0px"
   viewBox="0 0 180 200"
   xml:space="preserve"
   inkscape:version="0.91 r13725"
   sodipodi:docname="more-or-less-visible.svg"
   width="180"
   height="200"><metadata
     id="metadata15"><rdf:RDF><cc:Work
         rdf:about=""><dc:format>image/svg+xml</dc:format><dc:type
           rdf:resource="http://purl.org/dc/dcmitype/StillImage" /><dc:title /></cc:Work></rdf:RDF></metadata><defs
     id="defs13" /><sodipodi:namedview
     pagecolor="#ffffff"
     bordercolor="#666666"
     borderopacity="1"
     objecttolerance="10"
     gridtolerance="10"
     guidetolerance="10"
     inkscape:pageopacity="0"
     inkscape:pageshadow="2"
     inkscape:window-width="1536"
     inkscape:window-height="801"
     id="namedview11"
     showgrid="false"
     inkscape:zoom="3.5330394"
     inkscape:cx="64.717485"
     inkscape:cy="111.23456"
     inkscape:window-x="-8"
     inkscape:window-y="-8"
     inkscape:window-maximized="1"
     inkscape:current-layer="Layer_1" /><style
     type="text/css"
     id="style3">
	.st0{font-family:&quot;Arial Black&quot;, &quot;Arial Bold&quot;, Gadget, sans-serif;}
	.st1{font-size:118.4014px;}
	
		.st2{fill-rule:evenodd;clip-rule:evenodd;fill:none;stroke:#000000;stroke-width:18.9859;stroke-linecap:round;stroke-miterlimit:10;}
</style><g
     transform="matrix(1.0004582,0,0,0.999542,0,-20)"
     style="font-size:120.08430481px;font-family:'Arial Black', 'Arial Bold', Gadget, sans-serif"
     id="text5"><path
       d="m 13.993584,77.741687 22.457172,0 0,-22.574442 18.939078,0 0,22.574442 22.574442,0 0,18.997712 -22.574442,0 0,22.457171 -18.939078,0 0,-22.457171 -22.457172,0 0,-18.997712 z"
       style="font-size:120.08430481px;font-family:'Arial Black', 'Arial Bold', Gadget, sans-serif"
       id="path3375"
       inkscape:connector-curvature="0" /></g><g
     transform="matrix(0.58495873,0,0,1.7095223,0,-8)"
     style="font-size:213.80773926px;font-family:'Arial Black', 'Arial Bold', Gadget, sans-serif"
     id="text7"><path
       d="m 23.933313,74.326745 109.409427,0 0,10.648627 -109.409427,0 0,-10.648627 z"
       style="font-size:213.80773926px;font-family:'Arial Black', 'Arial Bold', Gadget, sans-serif"
       id="path3372"
       inkscape:connector-curvature="0" /></g><path
     style="clip-rule:evenodd;fill:none;fill-rule:evenodd;stroke:#000000;stroke-width:22.46506119;stroke-linecap:square;stroke-miterlimit:5;stroke-dasharray:none"
     d="m 90.044098,38.26842 0.003,1.873455 18.448592,95.474185 12.82473,0.0581 17.3636,-97.259886 16.89846,-0.145834"
     id="polyline9"
     inkscape:connector-curvature="0"
     sodipodi:nodetypes="cccccc" /></svg>

<?xml version="1.0" encoding="UTF-8" standalone="no"?>
<!-- Generator: Adobe Illustrator 19.0.0, SVG Export Plug-In . SVG Version: 6.00 Build 0)  -->

<svg
   version="1.1"
   id="Layer_1"
   x="0px"
   y="0px"
   viewBox="0 0 180 200"
   xml:space="preserve"
   inkscape:version="1.2.2 (b0a8486541, 2022-12-01)"
   sodipodi:docname="more-or-less-visible.svg"
   width="180"
   height="200"
   xmlns:inkscape="http://www.inkscape.org/namespaces/inkscape"
   xmlns:sodipodi="http://sodipodi.sourceforge.net/DTD/sodipodi-0.dtd"
   xmlns="http://www.w3.org/2000/svg"
   xmlns:svg="http://www.w3.org/2000/svg"
   xmlns:rdf="http://www.w3.org/1999/02/22-rdf-syntax-ns#"
   xmlns:cc="http://creativecommons.org/ns#"
   xmlns:dc="http://purl.org/dc/elements/1.1/"><metadata
     id="metadata15"><rdf:RDF><cc:Work
         rdf:about=""><dc:format>image/svg+xml</dc:format><dc:type
           rdf:resource="http://purl.org/dc/dcmitype/StillImage" /></cc:Work></rdf:RDF></metadata><defs
     id="defs13" /><sodipodi:namedview
     pagecolor="#ffffff"
     bordercolor="#666666"
     borderopacity="1"
     objecttolerance="10"
     gridtolerance="10"
     guidetolerance="10"
     inkscape:pageopacity="0"
     inkscape:pageshadow="2"
     inkscape:window-width="1870"
     inkscape:window-height="1131"
     id="namedview11"
     showgrid="false"
     inkscape:zoom="3.5330394"
     inkscape:cx="48.11721"
     inkscape:cy="111.37719"
     inkscape:window-x="1490"
     inkscape:window-y="851"
     inkscape:window-maximized="1"
     inkscape:current-layer="Layer_1"
     inkscape:showpageshadow="2"
     inkscape:pagecheckerboard="0"
     inkscape:deskcolor="#d1d1d1" /><style
     type="text/css"
     id="style3">
	.st0{font-family:&quot;Arial Black&quot;, &quot;Arial Bold&quot;, Gadget, sans-serif;}
	.st1{font-size:118.4014px;}
	
		.st2{fill-rule:evenodd;clip-rule:evenodd;fill:none;stroke:#000000;stroke-width:18.9859;stroke-linecap:round;stroke-miterlimit:10;}
</style><g
     transform="matrix(1.0004582,0,0,0.999542,0,12.858022)"
     style="font-size:120.084px;font-family:'Arial Black', 'Arial Bold', Gadget, sans-serif"
     id="text5"><path
       d="M 13.993584,77.741687 H 36.450756 V 55.167245 H 55.389834 V 77.741687 H 77.964276 V 96.739399 H 55.389834 V 119.19657 H 36.450756 V 96.739399 H 13.993584 Z"
       style="font-size:120.084px;font-family:'Arial Black', 'Arial Bold', Gadget, sans-serif"
       id="path3375"
       inkscape:connector-curvature="0" /></g><g
     transform="matrix(0.58495873,0,0,1.7095223,0,-36.165261)"
     style="font-size:213.808px;font-family:'Arial Black', 'Arial Bold', Gadget, sans-serif"
     id="text7"><path
       d="M 23.933313,74.326745 H 133.34274 V 84.975372 H 23.933313 Z"
       style="font-size:213.808px;font-family:'Arial Black', 'Arial Bold', Gadget, sans-serif"
       id="path3372"
       inkscape:connector-curvature="0" /></g><path
     style="clip-rule:evenodd;fill:none;fill-rule:evenodd;stroke:#000000;stroke-width:22.4651;stroke-linecap:square;stroke-miterlimit:5;stroke-dasharray:none"
     d="m 90.044098,51.324034 0.003,1.873455 18.448592,95.474181 12.82473,0.0581 17.3636,-97.259882 16.89846,-0.145834"
     id="polyline9"
     inkscape:connector-curvature="0"
     sodipodi:nodetypes="cccccc" /></svg>
